!!!COM: Barber, Samuel
!!!OTL: String Quartet Opus 11
!!!OMV: 2
!! Molto adagio
**kern
*clefG2
*k[b-e-a-d-g-]
*M4/2
=1-
{[0b-
=
4b-
4an
4b-
4cc
4a
4b-
4cc
4b-
=
4cc
4dd-
4b-
4cc
4dd-
4cc
4dd-
4ee-
*M5/2
=
1.cc},
{1cc
1cc
*M4/2
=
[1b-]
4b-]
{4b-
4cc
4dd-
=
4b-
4a-
4g-
4f
4e-
4d-
4c
4d-
=
4e-
4f
4g-
4a-
4b-
4a-
4f
4g-
=
1f},
{[1b-
=
4b-]
4an
4b-
4cc
4a-
4b-
4cc
4b-
=
4cc
4dd-
4b-
4cc
4dd-
4cc
4dd-
4ee-
=
(4cc
4gg-)
1.gg-
!! Rehearsal marking 1
*>1
=
1.ff
2ccc-
=
[1b-
4b-]}
{4b-
4dd-
4ccn
=
2.a-
4a-
2b-
2cc
*M6/2
=
2.dd-
4cc
4b-
4cc
2.b-}
{4b-
4a-
4b-
*M4/2
=
4cc-
4b-
4a-
4g-
2b-
4a-
4b-
=
2.a-
4g-
4f
4g-
2a-
=
[1g-
4g-]
4g-
4b-
4a-
!! Rehearsal marking 2
*>2
=
1f}
2r
{2b-
=
2.an
4a
1b-
=
2cc
2ff
2dd-
4cc
4dd-
=
[1ee-
4ee-]
4ee-
4ddn
4ee-
=
[1ddn
2.dd]}
{4dd-
=
4gg-
4ff
4ee-
4dd-
2.cc-
4dd-
=
4b-
4cc-
4a-
4b-
4cc-
4b-
4cc-
4dd-
*M6/2
=
1.B- 1.b-}
4r
{[4cc-
2cc-
2b-
*M4/2
=
[1a-
4a-]
4g-
4f
4g-
!! Rehearsal marking 3
*>3
=
2.f}
4r
2r
2r
=
0r
=
0r
*M5/2
=
1r
1r
2r
*M4/2
=
1r
1r
=
1r
1r
=
1r
1r
=
1r
1r
=
1r
1r
=
1r
1r
!! Rehearsal marking 4
*>4
=
1r
1r
=
{(4e-
4ee-)
[1.ee-
=
4ee-]
4ddn
4ee-
4ff
4dd
4ee-
4ff
4ee-
=
4ff
4gg-
4ee-
4ff
4gg-
4ff
4gg-
4aa-
=
[0ff
*M3/2
=
2ff]}
{1ff
*M4/2
=
[1ee-
4ee-]}
{4gg-
4ff
4gg-
=
1.ff}
(2bb-
=
1.aa-)
2ddd-
=
(2ccc
2fff
2.ddd-)
{[4eee-
=
4eee-
4ddd-
4eee-
4fff
4ddd-
4eee-
4fff
4eee-
=
4fff
4ggg-
4eee-
4fff
4ggg-~
4fff~
4ggg-~
4aaa-~
=
1bb- [0bbb-
2r	.
2r	.
=
1r	1bbb-]
1ccc-	1bbb-
=
!!! sff
[0ccc-	[0bbb-
=
0ccc-];	0bbb-];
2r
!! pp
{2B- 2b-
!! Rehearsal marking 5
*>5
=
1.a-}
{2c# 2g#
=
1.f#
2bn
=
1Gn 1en
1An 1fn}
!! Tempo 1
=
2r
2r
{[1b-
=
4b-]
4a
4b-
4cc
4a
4b-
4cc
4b-
=
4cc
4dd-
4b-
4cc
4dd-
4cc
4dd-
4ee-
*M5/2
=
1.cc},
{(1cc~
=
*M4/2
[1b-
4b-]}
{4dd-
4cc
4b-
=
4cc
4dd-
4ee-
4ff
4gg-
4ff
4ee-
4dd-
=
4cc
4b-
4a-
4g-
4b-
4a-
4f
4g-
=
1f},
{[1b-
=
4b-]
4an
4b-
4cc
[1a-
=
2.a-}
4r
{[1B-
=
2b-]
2An~
2B-~
2c~
=
0An
=
0A;}
==
*-
